X:457
T:El Cant dels Ocells
Z:Jack Campin, http://www.campin.me.uk/
F:Jack Campin's Nine-Note Tunebook
% last edit 20-07-2014
G:Christmas carol
M:2/4
L:1/8
Q:1/4=66
K:DMin
   E   | DE  FG | A3\
   d   |^cA  B=c| A3\
   B   | cB  dd |^c>B A2-|A2 z||        
|:HA   |^FG  AB | G3\
   G   | cB  AG | A3\
   G/F/|(EF) GF | A4     |D2 z:|

